packages/icons/src/SVG/loader.svg

<svg width="12" height="12" viewBox="0 0 12 12" fill="none" xmlns="http://www.w3.org/2000/svg">
<path d="M11.9941 5.2024C11.9785 5.08523 11.959 4.97196 11.9355 4.8626C11.912 4.74543 11.8847 4.62826 11.8534 4.51109C11.8221 4.37048 11.7791 4.22988 11.7244 4.08927C11.6775 3.94086 11.6267 3.79635 11.572 3.65574C11.4469 3.37453 11.3023 3.10504 11.1381 2.84726C10.9817 2.58167 10.8058 2.3278 10.6104 2.08565C10.3915 1.83568 10.153 1.60524 9.89505 1.39434C9.64487 1.17562 9.37516 0.980332 9.0859 0.808481C8.80446 0.644441 8.50738 0.503836 8.19466 0.386665C7.88977 0.269494 7.57705 0.179662 7.25652 0.117171C7.09235 0.0781141 6.92426 0.0507742 6.75227 0.0351513C6.5881 0.0117171 6.42001 0 6.24802 0C6.11512 0 5.98221 0.00390571 5.84931 0.0117171C5.72423 0.0195285 5.59523 0.0273399 5.46233 0.0351513C5.11834 0.066397 4.77827 0.128888 4.4421 0.222625C4.11375 0.316362 3.79322 0.437439 3.4805 0.585856C3.2147 0.710838 2.95671 0.855349 2.70654 1.01939C2.46418 1.18343 2.23356 1.36309 2.01466 1.55838C1.78794 1.75366 1.58077 1.96457 1.39314 2.1911C1.20551 2.41763 1.03352 2.65588 0.877162 2.90584C0.70517 3.17924 0.556631 3.46827 0.431545 3.77291C0.30646 4.07756 0.208736 4.39001 0.138376 4.71028C0.0836509 4.96025 0.0445617 5.21802 0.0211082 5.48361C-0.00234535 5.74139 -0.00625428 5.99916 0.00938141 6.25694C0.0171993 6.51472 0.0406528 6.76859 0.079742 7.01855C0.118831 7.26852 0.177465 7.51458 0.255644 7.75673C0.302551 7.91296 0.353367 8.06528 0.408091 8.2137C0.470634 8.36212 0.540995 8.51053 0.619173 8.65895C0.689534 8.79955 0.763803 8.94016 0.841982 9.08076C0.927978 9.21356 1.01788 9.34635 1.1117 9.47915C1.29151 9.73692 1.49477 9.97908 1.72149 10.2056C1.94821 10.4321 2.19056 10.643 2.44855 10.8383C2.70654 11.0258 2.98016 11.1938 3.26942 11.3422C3.5665 11.4906 3.8714 11.6156 4.18411 11.7171C4.50464 11.8187 4.83299 11.8929 5.16916 11.9397C5.51314 11.9866 5.85713 12.0061 6.20111 11.9983C6.53728 11.9905 6.86563 11.9515 7.18616 11.8812C7.51451 11.8187 7.83504 11.7288 8.14776 11.6117C8.44484 11.4945 8.73019 11.3539 9.00381 11.1898C9.28525 11.0258 9.55106 10.8422 9.80123 10.6391C9.9185 10.5298 10.0319 10.4204 10.1413 10.3111C10.2586 10.1939 10.368 10.0728 10.4697 9.94783C10.5713 9.82285 10.669 9.69396 10.7628 9.56117C10.8566 9.42056 10.9426 9.27996 11.0208 9.13935C11.0912 9.01437 11.1537 8.88938 11.2084 8.7644C11.2632 8.63942 11.314 8.51053 11.3609 8.37774C11.3843 8.31525 11.4078 8.25276 11.4313 8.19026C11.4783 8.0493 11.5162 7.91361 11.5485 7.76845C11.5642 7.69814 11.5798 7.62394 11.5954 7.54582C11.6111 7.43646 11.6228 7.3232 11.6306 7.20603C11.6384 7.08885 11.6384 6.97168 11.6306 6.85451C11.6228 6.90919 11.6111 6.96387 11.5954 7.01855C11.5771 7.12852 11.5527 7.23011 11.5133 7.33491C11.4977 7.38959 11.4782 7.44427 11.4547 7.49895C11.4156 7.61612 11.3687 7.7333 11.314 7.85047C11.2671 7.95983 11.2163 8.06919 11.1615 8.17855C11.099 8.31915 11.0286 8.45976 10.9505 8.60036C10.8723 8.73316 10.7941 8.86595 10.7159 8.99874C10.669 9.06905 10.6221 9.13935 10.5752 9.20965C10.5361 9.27214 10.4931 9.33463 10.4462 9.39713C10.3993 9.46743 10.3485 9.53383 10.2938 9.59632C10.239 9.65881 10.1843 9.71739 10.1296 9.77207C10.0201 9.89706 9.90286 10.0142 9.77778 10.1236C9.66051 10.2329 9.53542 10.3345 9.40252 10.4282C9.26962 10.5298 9.1289 10.6235 8.98036 10.7094C8.83964 10.7954 8.69501 10.8735 8.54647 10.9438C8.24157 11.0922 7.92495 11.2094 7.5966 11.2953C7.26825 11.389 6.93599 11.4476 6.59982 11.4711C6.25584 11.5023 5.91185 11.5023 5.56787 11.4711C5.22388 11.4398 4.88772 11.3734 4.55937 11.2719C4.24665 11.1781 3.94176 11.0571 3.64468 10.9086C3.35542 10.7602 3.07789 10.5884 2.81208 10.3931C2.56191 10.2056 2.32737 9.9947 2.10847 9.76036C1.88957 9.52601 1.69413 9.27605 1.52213 9.01046C1.34232 8.73706 1.18988 8.44804 1.06479 8.1434C0.939705 7.83875 0.841982 7.52629 0.771621 7.20603C0.755986 7.12791 0.74035 7.04589 0.724714 6.95997C0.709078 6.87404 0.697352 6.78812 0.689534 6.70219C0.681716 6.63189 0.673898 6.56158 0.66608 6.49128C0.66608 6.41317 0.662171 6.33896 0.654354 6.26866C0.654354 6.11243 0.658262 5.96011 0.66608 5.81169C0.673898 5.65546 0.689534 5.49923 0.712987 5.343C0.759894 5.01493 0.838073 4.69466 0.947523 4.3822C1.05697 4.06974 1.19378 3.76901 1.35796 3.47998C1.5065 3.2144 1.67458 2.96834 1.86221 2.74181C2.05766 2.50746 2.26483 2.29265 2.48373 2.09736C2.71045 1.90208 2.9528 1.72632 3.21079 1.57009C3.46878 1.40605 3.73458 1.26935 4.00821 1.15999C4.17238 1.08969 4.33656 1.03111 4.50073 0.984238C4.67273 0.937369 4.84472 0.898312 5.01671 0.867067C5.10271 0.851444 5.1887 0.839727 5.2747 0.831915C5.49552 0.7918 5.67909 0.785047 5.89622 0.785047C6.18548 0.777235 6.47474 0.792858 6.764 0.831915C7.05326 0.870972 7.33861 0.933464 7.62005 1.01939C7.91713 1.11313 8.20248 1.2342 8.47611 1.38262C8.75755 1.53104 9.01945 1.70289 9.2618 1.89817C9.51979 2.10908 9.75432 2.33952 9.96541 2.58948C10.1765 2.83945 10.3641 3.10894 10.5283 3.39796C10.6612 3.64012 10.7746 3.89399 10.8684 4.15958C10.97 4.41735 11.0521 4.68294 11.1146 4.95634C11.1303 5.01883 11.142 5.08132 11.1498 5.14381C11.1576 5.2063 11.1694 5.2688 11.185 5.33129C11.1928 5.39378 11.2124 5.45236 11.2436 5.50704C11.2749 5.55391 11.314 5.59297 11.3609 5.62422C11.4703 5.69452 11.5837 5.71014 11.701 5.67108C11.8261 5.63203 11.916 5.55391 11.9707 5.43674C11.9863 5.39768 11.9941 5.35863 11.9941 5.31957C12.002 5.28051 12.002 5.24146 11.9941 5.2024Z" fill="#4C505B"/>
</svg>

<!-- Generated by IcoMoon.io -->
<svg version="1.1" xmlns="http://www.w3.org/2000/svg" width="12" height="12" viewBox="0 0 12 12">
<title>loader</title>
<path d="M11.994 5.202c-0.016-0.117-0.035-0.23-0.059-0.34-0.023-0.117-0.051-0.234-0.082-0.352-0.031-0.141-0.074-0.281-0.129-0.422-0.047-0.148-0.098-0.293-0.152-0.434-0.125-0.281-0.27-0.551-0.434-0.808-0.156-0.266-0.332-0.519-0.528-0.762-0.219-0.25-0.457-0.48-0.715-0.691-0.25-0.219-0.52-0.414-0.809-0.586-0.281-0.164-0.579-0.305-0.891-0.422-0.305-0.117-0.618-0.207-0.938-0.269-0.164-0.039-0.332-0.066-0.504-0.082-0.164-0.023-0.332-0.035-0.504-0.035-0.133 0-0.266 0.004-0.399 0.012-0.125 0.008-0.254 0.016-0.387 0.023-0.344 0.031-0.684 0.094-1.020 0.187-0.328 0.094-0.649 0.215-0.962 0.363-0.266 0.125-0.524 0.269-0.774 0.434-0.242 0.164-0.473 0.344-0.692 0.539-0.227 0.195-0.434 0.406-0.622 0.633s-0.36 0.465-0.516 0.715c-0.172 0.273-0.321 0.562-0.446 0.867s-0.223 0.617-0.293 0.937c-0.055 0.25-0.094 0.508-0.117 0.773-0.023 0.258-0.027 0.516-0.012 0.773 0.008 0.258 0.031 0.512 0.070 0.762s0.098 0.496 0.176 0.738c0.047 0.156 0.098 0.309 0.152 0.457 0.063 0.148 0.133 0.297 0.211 0.445 0.070 0.141 0.145 0.281 0.223 0.422 0.086 0.133 0.176 0.266 0.27 0.398 0.18 0.258 0.383 0.5 0.61 0.726s0.469 0.437 0.727 0.633c0.258 0.188 0.532 0.355 0.821 0.504 0.297 0.148 0.602 0.273 0.915 0.375 0.321 0.102 0.649 0.176 0.985 0.223 0.344 0.047 0.688 0.066 1.032 0.059 0.336-0.008 0.665-0.047 0.985-0.117 0.328-0.062 0.649-0.152 0.962-0.269 0.297-0.117 0.582-0.258 0.856-0.422 0.281-0.164 0.547-0.348 0.797-0.551 0.117-0.109 0.231-0.219 0.34-0.328 0.117-0.117 0.227-0.238 0.328-0.363s0.199-0.254 0.293-0.387c0.094-0.141 0.18-0.281 0.258-0.422 0.070-0.125 0.133-0.25 0.188-0.375s0.106-0.254 0.152-0.387c0.023-0.062 0.047-0.125 0.070-0.187 0.047-0.141 0.085-0.277 0.117-0.422 0.016-0.070 0.031-0.145 0.047-0.223 0.016-0.109 0.027-0.223 0.035-0.34s0.008-0.234 0-0.352c-0.008 0.055-0.020 0.109-0.035 0.164-0.018 0.11-0.043 0.212-0.082 0.316-0.016 0.055-0.035 0.109-0.059 0.164-0.039 0.117-0.086 0.234-0.141 0.352-0.047 0.109-0.098 0.219-0.152 0.328-0.062 0.141-0.133 0.281-0.211 0.422-0.078 0.133-0.156 0.266-0.235 0.398-0.047 0.070-0.094 0.141-0.141 0.211-0.039 0.062-0.082 0.125-0.129 0.187-0.047 0.070-0.098 0.137-0.152 0.199s-0.11 0.121-0.164 0.176c-0.11 0.125-0.227 0.242-0.352 0.352-0.117 0.109-0.242 0.211-0.375 0.305-0.133 0.102-0.274 0.195-0.422 0.281-0.141 0.086-0.285 0.164-0.434 0.234-0.305 0.148-0.622 0.266-0.95 0.352-0.328 0.094-0.661 0.152-0.997 0.176-0.344 0.031-0.688 0.031-1.032 0s-0.68-0.098-1.009-0.199c-0.313-0.094-0.618-0.215-0.915-0.363-0.289-0.148-0.567-0.32-0.833-0.515-0.25-0.188-0.485-0.398-0.704-0.633s-0.414-0.484-0.586-0.75c-0.18-0.273-0.332-0.562-0.457-0.867s-0.223-0.617-0.293-0.937c-0.016-0.078-0.031-0.16-0.047-0.246s-0.027-0.172-0.035-0.258c-0.008-0.070-0.016-0.141-0.023-0.211 0-0.078-0.004-0.152-0.012-0.223 0-0.156 0.004-0.309 0.012-0.457 0.008-0.156 0.023-0.312 0.047-0.469 0.047-0.328 0.125-0.648 0.235-0.961s0.246-0.613 0.41-0.902c0.149-0.266 0.317-0.512 0.504-0.738 0.195-0.234 0.403-0.449 0.622-0.644 0.227-0.195 0.469-0.371 0.727-0.527 0.258-0.164 0.524-0.301 0.797-0.41 0.164-0.070 0.328-0.129 0.493-0.176 0.172-0.047 0.344-0.086 0.516-0.117 0.086-0.016 0.172-0.027 0.258-0.035 0.221-0.040 0.404-0.047 0.622-0.047 0.289-0.008 0.579 0.008 0.868 0.047s0.575 0.102 0.856 0.187c0.297 0.094 0.582 0.215 0.856 0.363 0.281 0.148 0.543 0.32 0.786 0.516 0.258 0.211 0.493 0.441 0.704 0.691s0.399 0.519 0.563 0.808c0.133 0.242 0.246 0.496 0.34 0.762 0.102 0.258 0.184 0.523 0.246 0.797 0.016 0.062 0.027 0.125 0.035 0.187s0.020 0.125 0.035 0.187c0.008 0.062 0.027 0.121 0.059 0.176 0.031 0.047 0.070 0.086 0.117 0.117 0.109 0.070 0.223 0.086 0.34 0.047 0.125-0.039 0.215-0.117 0.27-0.234 0.016-0.039 0.023-0.078 0.023-0.117 0.008-0.039 0.008-0.078 0-0.117z"></path>
</svg>
